src/svg/symbols/icon_share-filled.svg

<?xml version="1.0" encoding="UTF-8" standalone="no"?>
<svg width="46px" height="46px" viewBox="0 0 46 46" version="1.1" xmlns="http://www.w3.org/2000/svg" xmlns:xlink="http://www.w3.org/1999/xlink" xmlns:sketch="http://www.bohemiancoding.com/sketch/ns">
    <!-- Generator: Sketch 3.3 (11970) - http://www.bohemiancoding.com/sketch -->
    <title>share filled</title>
    <desc>Created with Sketch.</desc>
    <defs></defs>
    <g id="Page-1" stroke="none" stroke-width="1" fill="none" fill-rule="evenodd" sketch:type="MSPage">
        <g id="share-filled" sketch:type="MSArtboardGroup" stroke="#000000" stroke-width="2.8125" fill="#000000">
            <path d="M14.2206667,19.71575 L31.4706667,10.9316667 L14.2206667,19.71575 Z M13.9005833,25.6018333 L31.1505833,34.3859167 L13.9005833,25.6018333 Z M43.078,8.11033333 C43.078,11.4836667 40.3429167,14.2206667 36.9676667,14.2206667 C33.5943333,14.2206667 30.8573333,11.4836667 30.8573333,8.11033333 C30.8573333,4.73508333 33.5943333,2 36.9676667,2 C40.3429167,2 43.078,4.73508333 43.078,8.11033333 L43.078,8.11033333 Z M14.2206667,22.677 C14.2206667,26.05225 11.4836667,28.7873333 8.11033333,28.7873333 C4.73508333,28.7873333 2,26.05225 2,22.677 C2,19.3036667 4.73508333,16.5666667 8.11033333,16.5666667 C11.4836667,16.5666667 14.2206667,19.3036667 14.2206667,22.677 L14.2206667,22.677 Z M43.078,37.2245 C43.078,40.59975 40.3429167,43.3348333 36.9676667,43.3348333 C33.5943333,43.3348333 30.8573333,40.59975 30.8573333,37.2245 C30.8573333,33.8511667 33.5943333,31.1141667 36.9676667,31.1141667 C40.3429167,31.1141667 43.078,33.8511667 43.078,37.2245 L43.078,37.2245 Z" id="Imported-Layers" sketch:type="MSShapeGroup"></path>
        </g>
    </g>
</svg>

<svg width="46" height="46" viewBox="0 0 46 46" xmlns="http://www.w3.org/2000/svg"><title>share filled</title><path fill='currentColor' d="M14.22 19.716l17.25-8.784-17.25 8.784zm-.32 5.886l17.25 8.784-17.25-8.784zM43.08 8.11c0 3.374-2.735 6.11-6.11 6.11-3.374 0-6.11-2.736-6.11-6.11 0-3.375 2.736-6.11 6.11-6.11 3.375 0 6.11 2.735 6.11 6.11zM14.22 22.677c0 3.375-2.736 6.11-6.11 6.11-3.375 0-6.11-2.735-6.11-6.11 0-3.373 2.735-6.11 6.11-6.11 3.374 0 6.11 2.737 6.11 6.11zM43.08 37.224c0 3.376-2.735 6.11-6.11 6.11-3.374 0-6.11-2.734-6.11-6.11 0-3.373 2.736-6.11 6.11-6.11 3.375 0 6.11 2.737 6.11 6.11z" stroke="currentColor" stroke-width="2.813" fill-rule="evenodd"/></svg>
